symbols/web/local_activity/materialsymbolsoutlined/local_activity_wght300grad200_40px.svg

<svg xmlns="http://www.w3.org/2000/svg" height="40" width="40"><path d="M15.542 27.208 20 23.792l4.417 3.416-1.709-5.416 4.334-3.459h-5.25L20 13l-1.792 5.333h-5.25l4.292 3.459Zm-9.459 6.125q-1.166 0-1.979-.812-.812-.813-.812-2.021V24q1.458-.458 2.479-1.438Q6.792 21.583 6.792 20q0-1.625-1.021-2.625t-2.479-1.417V9.417q0-1.167.812-1.979.813-.813 1.979-.813h27.875q1.209 0 2.021.813.813.812.813 1.979v6.541q-1.459.417-2.5 1.417-1.042 1-1.042 2.625 0 1.583 1.042 2.562 1.041.98 2.5 1.438v6.5q0 1.208-.813 2.021-.812.812-2.021.812Zm0-2.833h27.875v-4.417q-1.583-.958-2.541-2.583-.959-1.625-.959-3.5 0-1.917.959-3.521.958-1.604 2.541-2.604V9.417H6.083v4.458q1.625 1 2.584 2.604.958 1.604.958 3.479 0 1.917-.958 3.542-.959 1.625-2.584 2.583Zm13.959-10.542Z"/></svg>

<svg xmlns="http://www.w3.org/2000/svg" height="40" width="40"><path d="M6.083 33.333Q4.958 33.333 4.125 32.5Q3.292 31.667 3.292 30.5V24Q4.75 23.583 5.771 22.583Q6.792 21.583 6.792 20Q6.792 18.417 5.771 17.396Q4.75 16.375 3.292 15.958V9.417Q3.292 8.292 4.125 7.458Q4.958 6.625 6.083 6.625H33.958Q35.083 6.625 35.938 7.458Q36.792 8.292 36.792 9.417V15.958Q35.333 16.375 34.312 17.396Q33.292 18.417 33.292 20Q33.292 21.583 34.312 22.583Q35.333 23.583 36.792 24V30.5Q36.792 31.667 35.938 32.5Q35.083 33.333 33.958 33.333ZM6.083 30.5H33.958V26.083Q32.417 25.125 31.438 23.521Q30.458 21.917 30.458 20Q30.458 18.083 31.417 16.458Q32.375 14.833 33.958 13.875V9.417H6.083V13.875Q7.667 14.833 8.646 16.458Q9.625 18.083 9.625 20Q9.625 21.917 8.625 23.521Q7.625 25.125 6.083 26.083ZM15.542 27.208 20 23.792 24.417 27.208 22.708 21.792 27.042 18.333H21.792L20 13L18.208 18.333H12.958L17.25 21.792ZM20.042 19.958Q20.042 19.958 20.042 19.958Q20.042 19.958 20.042 19.958Q20.042 19.958 20.042 19.958Q20.042 19.958 20.042 19.958Q20.042 19.958 20.042 19.958Q20.042 19.958 20.042 19.958Q20.042 19.958 20.042 19.958Q20.042 19.958 20.042 19.958Z"/></svg>
